X:53a
T:Star of Munster, The
S:Sessions in Edinburgh, Scotland
Z:Nigel Gatherer
S:Nigel Gatherer to CoMandoList TOW
R:Reel
M:4/4
L:1/8
K:Adorian
ed|c2 Ac B2 GB|AGEF GE D2|EAAG ABcd|eaaf gfed|
cBAc BAGB|AGEF GE D2|EAAB cded|cABG A2|]
z2|eaab ageg|agbg agef|gfga gedf|(3gfe af gedg|
eaab ageg|agbg agef|g2 ge a2 a2 af|b2 ba gfed|]
